Adwaita++/actions/22/document-print.svg

<svg height="22" viewBox="0 0 22 22" width="22" xmlns="http://www.w3.org/2000/svg">
  <path d="m4 1v2h8v-2zm-2 3c-.5 0-1 .5-1 1v4c0 .5.5 1 1 1h1v-2h10v2h1c.5 0 1-.5 1-1v-4c0-.5-.5-1-1-1zm2 5v5h8v-5z" fill="#444" transform="translate(3 3)"/>
</svg>

<svg xmlns="http://www.w3.org/2000/svg" width="22" height="22" viewBox="0 0 22 22">
 <defs>
  <style id="current-color-scheme" type="text/css">
   .ColorScheme-Text { color:#444444; } .ColorScheme-Highlight { color:#4285f4; }
  </style>
 </defs>
 <path style="fill:currentColor" class="ColorScheme-Text" d="M 4 1 L 4 3 L 12 3 L 12 1 L 4 1 z M 2 4 C 1.5 4 1 4.5 1 5 L 1 9 C 1 9.5 1.5 10 2 10 L 3 10 L 3 8 L 13 8 L 13 10 L 14 10 C 14.5 10 15 9.5 15 9 L 15 5 C 15 4.5 14.5 4 14 4 L 2 4 z M 4 9 L 4 14 L 12 14 L 12 9 L 4 9 z" transform="translate(3 3)"/>
</svg>
